dist/img/about/box.svg

<svg id="eLzMxKpEWmb1" xmlns="http://www.w3.org/2000/svg" xmlns:xlink="http://www.w3.org/1999/xlink" viewBox="0 0 68 68" shape-rendering="geometricPrecision" text-rendering="geometricPrecision">
<style><![CDATA[
#eLzMxKpEWmb2 {animation: eLzMxKpEWmb2_c_o 1500ms linear infinite normal forwards}@keyframes eLzMxKpEWmb2_c_o { 0% {opacity: 0} 100% {opacity: 1}}
]]></style>
<path id="eLzMxKpEWmb2" style="mix-blend-mode:multiply" d="M27.6251,15.2193h-6.6056L34.0001,0.519592L46.9806,15.2182h-6.6055v24.0943h-2.125v-26.2182h4.0194L34.0001,3.73047L25.7306,13.0943h4.0195v26.2182h-2.125v-24.0932ZM15.9376,41.4375h36.125v25.5h-36.125v-25.5Zm34,2.125h-11.6875v21.25h11.6875v-21.25Zm-25.5,1.6023c0,.2879.2348.5227.5227.5227h4.267c.288,0,.5228-.2348.5228-.5227v-1.6023h-5.3125v1.6023Zm-6.375,19.6477h18.0625v-21.25h-4.25v1.6023c0,1.4599-1.1879,2.6477-2.6478,2.6477h-4.267c-1.4598,0-2.6477-1.1878-2.6477-2.6477v-1.6023h-4.25v21.25Zm-8.50002,2.125h2.12502v-35.0625h-2.0772l5.2647-6.7692l5.2647,6.7692h-2.0772v7.4375h2.125v-5.3125h4.2978L14.8751,21.6442L5.26477,34h4.29781v32.9375Zm38.25002-38.25v10.625h2.125v-12.75h-2.0772l5.2647-6.7692l5.2647,6.7692h-2.0772v40.375h2.125v-38.25h4.2978L53.1251,16.3317L43.5148,28.6875h4.2978Z" opacity="0" fill="#685ed6"/></svg>

<svg width="68" height="68" viewBox="0 0 68 68" fill="none" xmlns="http://www.w3.org/2000/svg">
<path d="M27.6251 15.2193H21.0195L34.0001 0.519592L46.9806 15.2182H40.3751V39.3125H38.2501V13.0943H42.2695L34.0001 3.73047L25.7306 13.0943H29.7501V39.3125H27.6251V15.2193ZM15.9376 41.4375H52.0626V66.9375H15.9376V41.4375ZM49.9376 43.5625H38.2501V64.8125H49.9376V43.5625ZM24.4376 45.1648C24.4376 45.4527 24.6724 45.6875 24.9603 45.6875H29.2273C29.5153 45.6875 29.7501 45.4527 29.7501 45.1648V43.5625H24.4376V45.1648ZM18.0626 64.8125H36.1251V43.5625H31.8751V45.1648C31.8751 46.6247 30.6872 47.8125 29.2273 47.8125H24.9603C23.5005 47.8125 22.3126 46.6247 22.3126 45.1648V43.5625H18.0626V64.8125ZM9.56258 66.9375H11.6876V31.875H9.6104L14.8751 25.1058L20.1398 31.875H18.0626V39.3125H20.1876V34H24.4854L14.8751 21.6442L5.26477 34H9.56258V66.9375ZM47.8126 28.6875V39.3125H49.9376V26.5625H47.8604L53.1251 19.7933L58.3898 26.5625H56.3126V66.9375H58.4376V28.6875H62.7354L53.1251 16.3317L43.5148 28.6875H47.8126Z" fill="#685ED6"/>
</svg>
